X:532373 F:http://www.vwml.org/record/HAM/5/32/37%%VWML:HAM-5-32-37-0 T:Trees They Grow so High, The
S:Mrs Marina Russell, Upwey coll. HED Hammond
O:England
A:Dorset
N:Transcribed from HAM-05-093.gif F:HAM-05-32-37.abc Z:EFDSS;PJHeadford %%stretchlast 0
M:C
L:1/8
Q:2/4=50
K:C
"^Another Verse"\
D D|(D>G) G> AB2A2|A> D D< DD2F> F|F2 F> F F> F F> F|
w:At the age* of four-teen he was a mar-ried man, at the age of fif-teen he was the E>C C> CC2c c|(BG) G Bd2B2|c> c B> A D>C D>E|F> F ((3(FE) D)
w:fa-ther of a son, at the age* of six-teen
C2B,> C|DHG3||
W:Transcribed from HAM-05-093.gif
% downloaded from http://folkopedia.efdss.org/HAM-05-32-38.abc
